// Open Shading Language : Copyright (c) 2009-2017 Sony Pictures Imageworks Inc., et al.
// https://github.com/imageworks/OpenShadingLanguage/blob/master/LICENSE
//
// MaterialX specification (c) 2017 Lucasfilm Ltd.
// http://www.materialx.org/

#include "mx_funcs.h"

shader mx_absval_vector
    [[ string help = "The per-channel absolute value of the incoming float/color/vector." ]]
  (
    vector in = 0,
    output vector out = 0
  )
{
    out = abs(in);
}
