// Open Shading Language : Copyright (c) 2009-2017 Sony Pictures Imageworks Inc., et al.
// https://github.com/imageworks/OpenShadingLanguage/blob/master/LICENSE
//
// MaterialX specification (c) 2017 Lucasfilm Ltd.
// http://www.materialx.org/

#include "mx_funcs.h"

shader mx_dot_color4
    [[ string help = "Color4"" no-op " ]]
  (
    color4 in = {color(0,0,0), 0},
    output color4 out = {color(0,0,0), 0}
  )
{
    out = in; 
}
