// Open Shading Language : Copyright (c) 2009-2017 Sony Pictures Imageworks Inc., et al.
// https://github.com/imageworks/OpenShadingLanguage/blob/master/LICENSE
//
// MaterialX specification (c) 2017 Lucasfilm Ltd.
// http://www.materialx.org/

#include "mx_funcs.h"

shader mx_dotproduct_vector
    [[ string help = "Vector"" Perform a dot product of two 2-4 channel vectors" ]]
  (
    vector in1 = 0,
    vector in2 = 0,
    output float out = 0
  )
{
    out = dot(in1, in2); 
}
