// Open Shading Language : Copyright (c) 2009-2017 Sony Pictures Imageworks Inc., et al.
// https://github.com/imageworks/OpenShadingLanguage/blob/master/LICENSE
//
// MaterialX specification (c) 2017 Lucasfilm Ltd.
// http://www.materialx.org/

#include "mx_funcs.h"

shader mx_multiply_vector2
    [[ string help = "Vector2"" multiply in1 by in2" ]]
  (
    vector2 in1 = {0,0},
    vector2 in2 = {1,1},
    output vector2 out = {0,0}
  )
{
    out = in1 * in2;
}
