// Open Shading Language : Copyright (c) 2009-2017 Sony Pictures Imageworks Inc., et al.
// https://github.com/imageworks/OpenShadingLanguage/blob/master/LICENSE
// 
// MaterialX specification (c) 2017 Lucasfilm Ltd. 
// http://www.materialx.org/

shader mx_viewdirection_vector
    [[ string help = "The current view direction." ]]
  (
    output vector out = 0
  )
{
    out = I;
}
