#include "color2.h"

surface 
constant_color2
    [[ string description = "Simple closure for constant color surface rendering" ]]
(
    color2 Cin = {0.0, 0.0},
)
{
	Ci = color(Cin.r, Cin.a, 0) * emission();
}
