surface 
constant_color_background
    [[ string description = "Simple closure for constant color background rendering" ]]
(
	color Cin = 1
        [[  string description = "Input color to modulate background with" ]]
)
{
	Ci = Cin * background(); 
}
