// Open Shading Language : Copyright (c) 2009-2017 Sony Pictures Imageworks Inc., et al.
// https://github.com/imageworks/OpenShadingLanguage/blob/master/LICENSE
//
// MaterialX specification (c) 2017 Lucasfilm Ltd.
// http://www.materialx.org/

#include "mx_funcs.h"

shader mx_add_float_vector4
    [[ string help = "Vector4"" add in2 to the incoming data" ]]
  (
    vector4 in1 = {0,0,0,0},
    float in2 = 0.0,
    output vector4 out = {0,0,0,0}
  )
{
    out = mx_add (in1, in2);
}
