// Open Shading Language : Copyright (c) 2009-2017 Sony Pictures Imageworks Inc., et al.
// https://github.com/imageworks/OpenShadingLanguage/blob/master/LICENSE
//
// MaterialX specification (c) 2017 Lucasfilm Ltd.
// http://www.materialx.org/

#include "mx_funcs.h"

shader mx_acos_vector
    [[ string help = "Vector"" acos(in)" ]]
  (
    vector in = 0,
    output vector out = 0
  )
{
    out = acos(in);
}
