// Open Shading Language : Copyright (c) 2009-2017 Sony Pictures Imageworks Inc., et al.
// https://github.com/imageworks/OpenShadingLanguage/blob/master/LICENSE
//
// MaterialX specification (c) 2017 Lucasfilm Ltd.
// http://www.materialx.org/

#include "mx_funcs.h"

shader mx_ceil_float
    [[ string help = "Float"" Find the smallest integer less than or equal to the parameter." ]]
  (
    float in = 0,
    output float out = 0
  )
{
    out = ceil(in); 
}
