// Open Shading Language : Copyright (c) 2009-2017 Sony Pictures Imageworks Inc., et al.
// https://github.com/imageworks/OpenShadingLanguage/blob/master/LICENSE
//
// MaterialX specification (c) 2017 Lucasfilm Ltd.
// http://www.materialx.org/

#include "mx_funcs.h"

shader mx_determinant_matrix44
    [[ string help = "Matrix44"" the determinant of matrix in" ]]
  (
    matrix in = matrix(0),
    output float out = 0
  )
{
    out = determinant(in);
}
