// Open Shading Language : Copyright (c) 2009-2017 Sony Pictures Imageworks Inc., et al.
// https://github.com/imageworks/OpenShadingLanguage/blob/master/LICENSE
//
// MaterialX specification (c) 2017 Lucasfilm Ltd.
// http://www.materialx.org/

#include "mx_funcs.h"

shader mx_geomcolor_color
    [[ string help = "The color associated with the current geometry " ]]
  (
    output color out = 0
  )
{
    getattribute("color", out);
}
