// Open Shading Language : Copyright (c) 2009-2017 Sony Pictures Imageworks Inc., et al.
// https://github.com/imageworks/OpenShadingLanguage/blob/master/LICENSE
//
// MaterialX specification (c) 2017 Lucasfilm Ltd.
// http://www.materialx.org/

#include "mx_funcs.h"

shader mx_subtract_float_matrix33
    [[ string help = "Matrix33"" subtract in2 from the incoming data" ]]
  (
    matrix in1 = matrix(0),
    float in2 = 0.0,
    output matrix out = matrix(0)
  )
{
    out = mx_sub(in1, in2);
}
