void latlong_map_lookup(vector dir, string envmap_filename, output color result)
{
   float M_PI_INV = 1.0/M_PI;
   float latitude = -asin(dir[1]) * M_PI_INV + 0.5;
   latitude = clamp(latitude, 0.01, 0.99);
   float longitude = -atan2(dir[0], dir[2]) * M_PI_INV * 0.5 + 0.5;
   result = texture(envmap_filename, longitude, latitude);
}

shader envmap(float Kb = 1, string envmap_filename = "")
{
   color c;
   latlong_map_lookup(I, envmap_filename, c);
   Ci = Kb * c * background();
}
